X: 18
T: Browns Reel
%R: reel
B: "Twenty Four Favourite Dances for the Year 1783", Thomas Straight, ed. p.9 #2
F: http://www.vwml.org/browse/browse-collections-dance-tune-books/browse-straights1783
Z: 2014 John Chambers <jc:trillian.mit.edu>
M: C|
L: 1/8
K: C
|:\
c2ec dBAG | AcBA GEE2 |\
cege dBAG | AcB>A GCC2 ::\
ecgc dBgB | cAfA BGG2 |
AFcF GEcE | FD G/F/E/D/ ECC2 |\
egcg dgBg | cgAg BGG2 |\
AcFc GcEc | Aag>f ecc2 :|
% - - - - - - - - - - Dance description: - - - - - - - - - -
%%begintext align
%% Right hands across quite round .|. left hands
%% back again .|: lead down the middle thro the
%% bottom the 2d Cu follow & cast up into their
%% own places :|. cross over 1 Cu right & left :|:
%%endtext

%%sep 1 1 500
%%sep 1 1 500
